icon/fa/mask-ventilator.svg

<svg xmlns="http://www.w3.org/2000/svg" viewBox="0 0 640 512"><!--! Font Awesome Free 6.1.2 by @fontawesome - https://fontawesome.com License - https://fontawesome.com/license/free (Icons: CC BY 4.0, Fonts: SIL OFL 1.1, Code: MIT License) Copyright 2022 Fonticons, Inc.--><path d="M320 32c52.1 0 99.7 41.8 134.5 96H584c30.9 0 56 25.1 56 56v85c0 55.1-37.5 103.1-90.9 116.5l-71.6 17.9c-22.9 30.4-56.4 53.8-93.5 66.4v-76.6c19.6-16.4 32-40.1 32-66.8 0-49.5-43.5-135.3-96-135.3-53 0-96 85.8-96 135.3 0 26.6 12.3 50.5 32 66.9v76.6c-38.4-12.5-71.1-36.1-93.8-66.6l-71.3-17.8C37.48 372.1 0 324.1 0 269v-85c0-30.9 25.07-56 56-56h129.1c34.7-54.2 82.3-96 134.9-96zM56 176c-4.42 0-8 3.6-8 8v85c0 33.1 22.49 61.9 54.5 69.9l31.8 7.9c-4.1-14.6-7.2-30.1-7.2-46 0-36.1 12.3-81.6 32-124.8H56zm424.7 0c19.7 43.2 31.3 88.7 31.3 124.8 0 16-2.2 31.4-6.4 46.1l31.9-8c32-8 54.5-36.8 54.5-69.9v-85c0-4.4-3.6-8-8-8H480.7zM288 320c0-17.7 14.3-32 32-32s32 14.3 32 32v192h-64V320z"/></svg>

<svg xmlns="http://www.w3.org/2000/svg" viewBox="0 0 640 512" height="1em" width="1em">
<!--! Font Awesome Free 6.1.2 by @fontawesome - https://fontawesome.com License - https://fontawesome.com/license/free (Icons: CC BY 4.0, Fonts: SIL OFL 1.1, Code: MIT License) Copyright 2022 Fonticons, Inc.-->
  <path d="M320 32C372.1 32 419.7 73.8 454.5 128H584C614.9 128 640 153.1 640 184V269C640 324.1 602.5 372.1 549.1 385.5L477.5 403.4C454.6 433.8 421.1 457.2 384 469.8V393.2C403.6 376.8 416 353.1 416 326.4C416 276.9 372.5 191.1 320 191.1C267 191.1 224 276.9 224 326.4C224 353 236.3 376.9 256 393.3V469.9C217.6 457.4 184.9 433.8 162.2 403.3L90.9 385.5C37.48 372.1 0 324.1 0 269V184C0 153.1 25.07 128 56 128H185.1C219.8 73.8 267.4 32 320 32V32zM56 176C51.58 176 48 179.6 48 184V269C48 302.1 70.49 330.9 102.5 338.9L134.3 346.8C130.2 332.2 127.1 316.7 127.1 300.8C127.1 264.7 139.4 219.2 159.1 176H56zM480.7 176C500.4 219.2 512 264.7 512 300.8C512 316.8 509.8 332.2 505.6 346.9L537.5 338.9C569.5 330.9 592 302.1 592 269V184C592 179.6 588.4 176 584 176H480.7zM288 320C288 302.3 302.3 288 320 288C337.7 288 352 302.3 352 320V512H288V320z"/>
</svg>
